remix/Device/dual-sim-1-line.svg

<svg viewBox="0 0 24 24" fill="currentColor" xmlns="http://www.w3.org/2000/svg"><path d="M15 2L19.7071 6.70711C19.8946 6.89464 20 7.149 20 7.41421V21C20 21.5523 19.5523 22 19 22H5C4.44772 22 4 21.5523 4 21V3C4 2.44772 4.44772 2 5 2H15ZM14.171 4H6V20H18V7.829L14.171 4ZM13 16H11V10H10V8H13V16Z"/></svg>

<svg viewBox="0 0 24 24" xmlns="http://www.w3.org/2000/svg"><path fill="none" d="M0 0h24v24H0Z"/><path d="M15 2l4.7 4.707V6.7c.18.18.29.44.29.7v13.586 0c0 .55-.45 1-1 1h-14v0c-.56 0-1-.45-1-1v-18 0c0-.56.44-1 1-1h10Zm-.83 2H5.99v16h12V7.82l-3.83-3.83Zm-1.18 12h-2v-6h-1V8h3v8Z"/></svg>
